X: 178
T: Portsmouth Harbour
%R: march
M: C
L: 1/8
Z: 2014 John Chambers <jc:trillian.mit.edu>
B: Chas & Sam Thompson "Twenty Four Country Dances for the Year 1772", London 1772, p.89
F: http://folkopedia.efdss.org/images/8/89/Thompson_24_1772.PDF
K: G
|:\
GB- Bc/d/ ecec | GB- Bc/d/ cAcA |\
GB- Bc/d/ ecec | BGAF G2[G2G,2] :|
|:\
Bd- de/f/ gdgd | Bd- dc/B/ cAcA |\
Bd- de/f/ gdgd | BGAF G2[G2G,2] :|
% - - - - - - - - - - - - - - - - - - - - - - - - -
%%begintext align
%% Hands 6 round .|. back again :|: 1st Man
%% Allemande with the 2d Wo. 1st Wo. do
%% the same with the 2d Man at the same
%% time .|: the same with the 3d Cu. :|:
%% Hey all round .||. :||. lead up the
%% middle & cast off .||: Allemande with
%% your Partner :||:
%%endtext
% - - - - - - - - - - - - - - - - - - - - - - - - -

%%sep 1 1 500
%%sep 1 1 500
